public/assets/icons/svg/stat/amber-control.svg

<svg fill="none" height="24" viewBox="0 0 24 24" width="24" xmlns="http://www.w3.org/2000/svg"><g fill="#ffc107" stroke="#4f4f4f" transform="matrix(.72023002 0 0 .72023002 -.227593 .854334)"><path d="m9.59637 13.9403 5.22963-3.5322-.5459-9.372-4.90351 3.89159-4.90347 3.89158-3.28718 11.36383 10.65736 9.8994 3.9099-7.8683z"/><path d="m24.6625 26.9592 8.0266-9.1299-12.245-16.11235-.9408 9.52245-4.9862 3.2765 5.0931 8.0246-4.4525 7.4614z"/></g></svg>

<svg width="36" height="33" viewBox="0 0 36 33" fill="none" xmlns="http://www.w3.org/2000/svg">
<path d="M9.59637 13.9403L14.826 10.4081L14.2801 1.0361L9.37659 4.92769L4.47312 8.81927L1.18594 20.1831L11.8433 30.0825L15.7532 22.2142L9.59637 13.9403Z" fill="#FFC107" stroke="#4F4F4F"/>
<path d="M24.6625 26.9592L32.6891 17.8293L20.4441 1.71695L19.5033 11.2394L14.5171 14.5159L19.6102 22.5405L15.1577 30.0019L24.6625 26.9592Z" fill="#FFC107" stroke="#4F4F4F"/>
</svg>
